svg/business/currency_nigeria_2_fill.svg

<svg xmlns="http://www.w3.org/2000/svg" width="24" height="24" viewBox="0 0 24 24"><g fill="none" fill-rule="evenodd"><path d="M24,0 L24,24 L0,24 L0,0 L24,0 Z M12.5935,23.2578 L12.5819,23.2595 L12.5109,23.295 L12.4919,23.2987 L12.4767,23.295 L12.4057,23.2595 C12.3958,23.2564 12.387,23.259 12.3821,23.2649 L12.378,23.2758 L12.3609,23.7031 L12.3659,23.7235 L12.3769,23.7357 L12.4805,23.8097 L12.4953,23.8136 L12.5071,23.8097 L12.6107,23.7357 L12.6233,23.7197 L12.6267,23.7031 L12.6096,23.2758 C12.6076,23.2657 12.601,23.2593 12.5935,23.2578 Z M12.8584,23.1453 L12.8445,23.1473 L12.6598,23.2397 L12.6499,23.2499 L12.6472,23.2611 L12.6651,23.6906 L12.6699,23.7034 L12.6784,23.7105 L12.8793,23.8032 C12.8914,23.8069 12.9022,23.803 12.9078,23.7952 L12.9118,23.7812 L12.8777,23.1665 C12.8753,23.1546 12.8674,23.147 12.8584,23.1453 Z M12.143,23.1473 C12.1332,23.1424 12.1222,23.1453 12.1156,23.1526 L12.1099,23.1665 L12.0758,23.7812 C12.0751,23.7927 12.0828,23.8019 12.0926,23.8046 L12.1083,23.8032 L12.3092,23.7105 L12.3186,23.7024 L12.3225,23.6906 L12.3404,23.2611 L12.3372,23.2485 L12.3278,23.2397 L12.143,23.1473 Z"/><path fill="#09244B" d="M8.5,2.5 C9.09595,2.5 9.63537,2.85279 9.87424,3.39877 L12.106,8.5 L14.5,8.5 L14.5,4 C14.5,3.17157 15.1716,2.5 16,2.5 C16.8284,2.5 17.5,3.17157 17.5,4 L17.5,8.5 L19,8.5 C19.8284,8.5 20.5,9.17157 20.5,10 C20.5,10.8284 19.8284,11.5 19,11.5 L17.5,11.5 L17.5,13.5 L19,13.5 C19.8284,13.5 20.5,14.1716 20.5,15 C20.5,15.8284 19.8284,16.5 19,16.5 L17.5,16.5 L17.5,20 C17.5,20.8284 16.8284,21.5 16,21.5 L15.5,21.5 C14.9041,21.5 14.3646,21.1472 14.1258,20.6012 L12.3315,16.5 L9.5,16.5 L9.5,20 C9.5,20.8284 8.82843,21.5 8,21.5 C7.17157,21.5 6.5,20.8284 6.5,20 L6.5,16.5 L5,16.5 C4.17157,16.5 3.5,15.8284 3.5,15 C3.5,14.1716 4.17157,13.5 5,13.5 L6.5,13.5 L6.5,11.5 L5,11.5 C4.17157,11.5 3.5,10.8284 3.5,10 C3.5,9.17157 4.17157,8.5 5,8.5 L6.5,8.5 L6.5,4 C6.5,3.17157 7.17157,2.5 8,2.5 L8.5,2.5 Z M10.144,11.5 L9.5,11.5 L9.5,13.5 L11.019,13.5 L10.144,11.5 Z M14.5,11.5 L13.4185,11.5 L14.2935,13.5 L14.5,13.5 L14.5,11.5 Z"/></g></svg>

<svg xmlns="http://www.w3.org/2000/svg" width="24" height="24"><g fill="none" fill-rule="evenodd"><path d="M24 0v24H0V0zM12.594 23.258l-.012.002-.071.035-.02.004-.014-.004-.071-.036c-.01-.003-.019 0-.024.006l-.004.01-.017.428.005.02.01.013.104.074.015.004.012-.004.104-.074.012-.016.004-.017-.017-.427c-.002-.01-.009-.017-.016-.018m.264-.113-.014.002-.184.093-.01.01-.003.011.018.43.005.012.008.008.201.092c.012.004.023 0 .029-.008l.004-.014-.034-.614c-.003-.012-.01-.02-.02-.022m-.715.002a.023.023 0 0 0-.027.006l-.006.014-.034.614c0 .012.007.02.017.024l.015-.002.201-.093.01-.008.003-.011.018-.43-.003-.012-.01-.01z"/><path fill="#09244B" d="M8.5 2.5a1.5 1.5 0 0 1 1.374.899L12.106 8.5H14.5V4a1.5 1.5 0 0 1 3 0v4.5H19a1.5 1.5 0 0 1 0 3h-1.5v2H19a1.5 1.5 0 0 1 0 3h-1.5V20a1.5 1.5 0 0 1-1.5 1.5h-.5a1.5 1.5 0 0 1-1.374-.899L12.332 16.5H9.5V20a1.5 1.5 0 0 1-3 0v-3.5H5a1.5 1.5 0 0 1 0-3h1.5v-2H5a1.5 1.5 0 0 1 0-3h1.5V4A1.5 1.5 0 0 1 8 2.5zm1.644 9H9.5v2h1.519zm4.356 0h-1.082l.876 2h.206z"/></g></svg>
